X: 41
T:A Cold Frosty Morning
M:3/4
L:1/4
R:Waltz
K:A
F|"A"E3/4F/4 AA|"F#m"A2 A|"D"B/c/ d/c/ B/A/|"E"G<F E|"A"E3/4F/4 AA|"A"c3
/4d/4 ea|!
"E"B>AB/c/|"A"A2:||e/f/|"G"=g>ba/g/|"D"g<fe|"A"efa/b/|"A"afe/f/|"G"=g/f/
g/b/ a/g/|!
"D"f2 f/4^g/4a/|"A"e3/4f/4 e/c/ B/c/|"A"AFE|"G"=g/f/ g/b/ a/g/|"D"f/e/ c
